wagtail_fa_svg/templates/wagtail-fa-svg/v6/solid/mattress-pillow.svg

<svg id="icon-mattress-pillow" viewbox="0 0 640 512" xmlns="http://www.w3.org/2000/svg"><!--! Font Awesome Free 6.6.0 by @fontawesome - https://fontawesome.com License - https://fontawesome.com/license/free (Icons: CC BY 4.0, Fonts: SIL OFL 1.1, Code: MIT License) Copyright 2024 Fonticons, Inc. --><path d="M256 64L64 64C28.7 64 0 92.7 0 128L0 384c0 35.3 28.7 64 64 64l192 0 0-384zm32 384l288 0c35.3 0 64-28.7 64-64l0-256c0-35.3-28.7-64-64-64L288 64l0 384zM64 160c0-17.7 14.3-32 32-32l64 0c17.7 0 32 14.3 32 32l0 192c0 17.7-14.3 32-32 32l-64 0c-17.7 0-32-14.3-32-32l0-192z"></path></svg>

<svg id="icon-mattress-pillow" viewbox="0 0 640 512" xmlns="http://www.w3.org/2000/svg"><!--! Font Awesome Free 6.5.2 by @fontawesome - https://fontawesome.com License - https://fontawesome.com/license/free (Icons: CC BY 4.0, Fonts: SIL OFL 1.1, Code: MIT License) Copyright 2024 Fonticons, Inc. --><path d="M256 64H64C28.7 64 0 92.7 0 128V384c0 35.3 28.7 64 64 64H256V64zm32 384H576c35.3 0 64-28.7 64-64V128c0-35.3-28.7-64-64-64H288V448zM64 160c0-17.7 14.3-32 32-32h64c17.7 0 32 14.3 32 32V352c0 17.7-14.3 32-32 32H96c-17.7 0-32-14.3-32-32V160z"></path></svg>
